X: 2
T: Reel Jean Luc Paradis
C: Rjean Lizotte
M: 2/4
L: 1/16
R: reel
Z: <http://tunes.nhcountrydance.com>.
S: web.me.com/peterynh/music/fiddle-tunes_abc_reels.abc 2011-8-17
K: D
|:A,D |\
FGFE DA,DF | ABAG FDFA | cdcB ABAG | FDEF E2A,D |
FGFE DA,DF | ABAG FDFA | cdcB ABAG | FDEF D2 :|
|:FA |\
dedc B2GB | dedc B2cd | efed ceAc | efed c2(3ABc |
d2>c2 B2GB | dedc B2cd | efed cABc | dBAF D2 :|

%%sep 1 1 500

